X: 16010
T: Great North Run, The
R: barndance
M: 4/4
K: Gmajor
|:(3DEF|G2 G2 F>GA>F|G>AB>c d2 G2|e2 e2 d>B (3GAB|A>BA>G (3EFE D2|
G2 G2 F>G (3AGF|G>AB>c d2 G2|e2 c>e d>GD>G|A2 D2 G2:|
|:(3def|g2 g2 f>d (3Bcd|e>d^c>e d2 G2|e2 c>e d2 G>B|A2 (3BAG E2 D2|
G2 G2 F2 (3FGA|G2 (3ABc d2 G2|e>d (3cde d>GB>G|A>F (3DEF G2:|

